X: 1653
T: Kitty's Rambles
B: australian traditional tunes wiki
M:6/8
L:1/8
R: Jig
Q: 3/8=100
K:D
V:1 
|:"D"FED F2A|def g2a|"A"ged cBA|GAG FED|
"D"FED F2A|"D"def g2a|"A"ged cBA|ABc "D"d3:|
|:"D"dfa dfa|dfa agf|"C"egg egg|egg gfe|
"D"fef "A"gfg|"D"aba "A"gfe|"D"fdB "A"A2B|ABc "D"d3:|
% abcbook-tune_id 6342d53a3eb3ab50143f4287


% abcbook-boost 0
% abcbook-tablature 
% abcbook-transpose 
% abcbook-lastupdated 1665324376201
% abcbook-soundfonts 
% abcbook-repeats 1
% NFF Book 2018

